licenses/cc/CC-BY-4.0.svg

<svg width="124" height="21" viewBox="0 0 124 21" fill="none" xmlns="http://www.w3.org/2000/svg">
<g clip-path="url(#clip0_2011_2)">
<rect width="124" height="21" rx="5" fill="black"/>
<g filter="url(#filter0_d_2011_2)">
<g clip-path="url(#clip1_2011_2)">
<path d="M12.9852 2.5C15.223 2.5 17.1282 3.28125 18.6995 4.843C19.4515 5.59525 20.0232 6.455 20.4137 7.4215C20.804 8.38825 20.9997 9.41425 20.9997 10.5C20.9997 11.5952 20.8065 12.6215 20.4212 13.5782C20.0355 14.5352 19.4662 15.3807 18.7142 16.114C17.9335 16.8852 17.0477 17.476 16.057 17.8855C15.0667 18.295 14.0427 18.4997 12.9857 18.4997C11.9287 18.4997 10.9167 18.2977 9.95 17.8925C8.9835 17.488 8.11675 16.9022 7.35 16.1357C6.58325 15.3692 6 14.5047 5.6 13.5427C5.2 12.5807 5 11.5667 5 10.5C5 9.44275 5.20225 8.42625 5.607 7.45C6.01175 6.47375 6.6 5.6 7.37125 4.8285C8.895 3.2765 10.7663 2.5 12.9852 2.5ZM13.0142 3.943C11.1857 3.943 9.6475 4.58125 8.39975 5.85725C7.771 6.4955 7.28775 7.212 6.94975 8.00725C6.61125 8.8025 6.4425 9.6335 6.4425 10.5002C6.4425 11.3575 6.61125 12.1837 6.94975 12.9785C7.288 13.7742 7.771 14.4837 8.39975 15.1075C9.02825 15.7315 9.7375 16.2072 10.5285 16.5362C11.3187 16.8647 12.1475 17.029 13.0142 17.029C13.8712 17.029 14.7017 16.8627 15.5075 16.5292C16.3122 16.1955 17.0377 15.715 17.6857 15.0865C18.9332 13.8675 19.5567 12.339 19.5567 10.5005C19.5567 9.61475 19.3947 8.77675 19.071 7.98625C18.7477 7.19575 18.276 6.49125 17.6575 5.87175C16.371 4.586 14.8237 3.943 13.0142 3.943ZM12.914 9.17175L11.8422 9.729C11.7277 9.49125 11.5875 9.32425 11.421 9.229C11.2542 9.134 11.0995 9.08625 10.9565 9.08625C10.2425 9.08625 9.885 9.5575 9.885 10.5005C9.885 10.929 9.9755 11.2715 10.1562 11.5287C10.3372 11.786 10.604 11.9147 10.9565 11.9147C11.4232 11.9147 11.7517 11.686 11.9425 11.229L12.928 11.729C12.7185 12.1197 12.428 12.4267 12.0565 12.6505C11.6855 12.8745 11.2757 12.9862 10.828 12.9862C10.1137 12.9862 9.53725 12.7675 9.09925 12.329C8.66125 11.891 8.44225 11.2815 8.44225 10.5007C8.44225 9.73875 8.66375 9.13425 9.1065 8.6865C9.54925 8.239 10.1087 8.015 10.7852 8.015C11.776 8.0145 12.4852 8.40025 12.914 9.17175ZM17.5282 9.17175L16.471 9.729C16.3567 9.49125 16.216 9.32425 16.0495 9.229C15.8825 9.134 15.7227 9.08625 15.571 9.08625C14.8567 9.08625 14.4992 9.5575 14.4992 10.5005C14.4992 10.929 14.59 11.2715 14.7707 11.5287C14.9515 11.786 15.218 11.9147 15.571 11.9147C16.0372 11.9147 16.366 11.686 16.5562 11.229L17.5562 11.729C17.3375 12.1197 17.042 12.4267 16.671 12.6505C16.2995 12.8745 15.8947 12.9862 15.4567 12.9862C14.7327 12.9862 14.1545 12.7675 13.7215 12.329C13.2875 11.891 13.071 11.2815 13.071 10.5007C13.071 9.73875 13.2922 9.13425 13.7355 8.6865C14.178 8.239 14.7375 8.015 15.4137 8.015C16.4042 8.0145 17.1095 8.40025 17.5282 9.17175Z" fill="white"/>
</g>
</g>
<g filter="url(#filter1_d_2011_2)">
<path d="M24.0387 15.5V6.04545H25.4652V14.272H29.7493V15.5H24.0387ZM31.2658 15.5V8.40909H32.6461V15.5H31.2658ZM31.9629 7.31498C31.7228 7.31498 31.5166 7.23497 31.3443 7.07493C31.175 6.91181 31.0904 6.71792 31.0904 6.49325C31.0904 6.26551 31.175 6.07161 31.3443 5.91158C31.5166 5.74846 31.7228 5.6669 31.9629 5.6669C32.2029 5.6669 32.4076 5.74846 32.5769 5.91158C32.7492 6.07161 32.8354 6.26551 32.8354 6.49325C32.8354 6.71792 32.7492 6.91181 32.5769 7.07493C32.4076 7.23497 32.2029 7.31498 31.9629 7.31498ZM37.49 15.6431C36.8036 15.6431 36.2127 15.4877 35.7172 15.1768C35.2248 14.8629 34.8463 14.4305 34.5816 13.8796C34.3169 13.3287 34.1846 12.6978 34.1846 11.9869C34.1846 11.2667 34.32 10.6312 34.5908 10.0803C34.8616 9.52628 35.2433 9.09387 35.7357 8.78302C36.2281 8.47218 36.8083 8.31676 37.4761 8.31676C38.0147 8.31676 38.4948 8.41678 38.9165 8.61683C39.3381 8.8138 39.6782 9.09079 39.9367 9.4478C40.1983 9.8048 40.3537 10.2218 40.403 10.6989H39.0596C38.9857 10.3665 38.8164 10.0803 38.5518 9.8402C38.2902 9.60014 37.9393 9.48011 37.4992 9.48011C37.1145 9.48011 36.7775 9.58167 36.4882 9.7848C36.202 9.98485 35.9788 10.2711 35.8188 10.6435C35.6588 11.0128 35.5787 11.4498 35.5787 11.9545C35.5787 12.4716 35.6572 12.9178 35.8142 13.2933C35.9711 13.6688 36.1927 13.9596 36.479 14.1658C36.7683 14.372 37.1083 14.4751 37.4992 14.4751C37.7608 14.4751 37.9978 14.4274 38.2101 14.332C38.4256 14.2335 38.6056 14.0935 38.7503 13.9119C38.898 13.7303 39.0011 13.5118 39.0596 13.2564H40.403C40.3537 13.715 40.2045 14.1243 39.9552 14.4844C39.7059 14.8445 39.3719 15.1276 38.9534 15.3338C38.5379 15.54 38.0501 15.6431 37.49 15.6431ZM44.9352 15.6431C44.2366 15.6431 43.6349 15.4938 43.1301 15.1953C42.6285 14.8937 42.2407 14.4705 41.9668 13.9258C41.696 13.378 41.5605 12.7363 41.5605 12.0007C41.5605 11.2744 41.696 10.6342 41.9668 10.0803C42.2407 9.52628 42.6223 9.09387 43.1117 8.78302C43.6041 8.47218 44.1796 8.31676 44.8382 8.31676C45.2383 8.31676 45.6261 8.38293 46.0016 8.51527C46.3771 8.64761 46.7141 8.85535 47.0126 9.13849C47.3111 9.42164 47.5466 9.78942 47.7189 10.2418C47.8913 10.6912 47.9774 11.2375 47.9774 11.8807V12.37H42.3407V11.3359H46.6248C46.6248 10.9728 46.551 10.6512 46.4032 10.3711C46.2555 10.0879 46.0478 9.86482 45.78 9.7017C45.5153 9.53859 45.2045 9.45703 44.8475 9.45703C44.4597 9.45703 44.1211 9.55244 43.8318 9.74325C43.5456 9.93099 43.324 10.1772 43.1671 10.4819C43.0132 10.7835 42.9363 11.1113 42.9363 11.4652V12.2731C42.9363 12.747 43.0193 13.1502 43.1855 13.4826C43.3548 13.815 43.5903 14.0689 43.8919 14.2443C44.1935 14.4167 44.5459 14.5028 44.949 14.5028C45.2106 14.5028 45.4492 14.4659 45.6646 14.392C45.88 14.3151 46.0662 14.2012 46.2232 14.0504C46.3801 13.8996 46.5002 13.7134 46.5833 13.4918L47.8897 13.7273C47.7851 14.112 47.5974 14.449 47.3265 14.7383C47.0588 15.0245 46.7218 15.2476 46.3155 15.4077C45.9123 15.5646 45.4522 15.6431 44.9352 15.6431ZM50.8893 11.2898V15.5H49.509V8.40909H50.8339V9.56321H50.9216C51.0847 9.18773 51.3402 8.88612 51.6879 8.65838C52.0388 8.43063 52.4804 8.31676 53.0129 8.31676C53.4961 8.31676 53.9192 8.41832 54.2824 8.62145C54.6456 8.82149 54.9272 9.12003 55.1272 9.51704C55.3273 9.91406 55.4273 10.4049 55.4273 10.9897V15.5H54.047V11.1559C54.047 10.6419 53.9131 10.2403 53.6453 9.95099C53.3776 9.65862 53.0098 9.51243 52.542 9.51243C52.2219 9.51243 51.9372 9.58167 51.6879 9.72017C51.4417 9.85866 51.2463 10.0618 51.1016 10.3295C50.9601 10.5942 50.8893 10.9143 50.8893 11.2898ZM62.5921 10.1403L61.341 10.3619C61.2887 10.2018 61.2056 10.0495 61.0917 9.90483C60.9809 9.76018 60.8301 9.64169 60.6393 9.54936C60.4485 9.45703 60.2099 9.41086 59.9237 9.41086C59.5329 9.41086 59.2066 9.49858 58.945 9.674C58.6834 9.84635 58.5526 10.0695 58.5526 10.3434C58.5526 10.5804 58.6403 10.7712 58.8158 10.9158C58.9912 11.0605 59.2743 11.179 59.6652 11.2713L60.7916 11.5298C61.4441 11.6806 61.9304 11.913 62.2504 12.2269C62.5705 12.5408 62.7305 12.9486 62.7305 13.4503C62.7305 13.875 62.6074 14.2535 62.3612 14.5859C62.1181 14.9152 61.778 15.1738 61.341 15.3615C60.907 15.5492 60.4038 15.6431 59.8314 15.6431C59.0374 15.6431 58.3895 15.4738 57.8879 15.1353C57.3862 14.7937 57.0784 14.3089 56.9646 13.6811L58.2987 13.478C58.3818 13.8258 58.5526 14.0889 58.8112 14.2674C59.0697 14.4428 59.4067 14.5305 59.8222 14.5305C60.2746 14.5305 60.6362 14.4367 60.907 14.2489C61.1779 14.0581 61.3133 13.8258 61.3133 13.5518C61.3133 13.3303 61.2302 13.1441 61.064 12.9932C60.9009 12.8424 60.6501 12.7286 60.3115 12.6516L59.1112 12.3885C58.4495 12.2377 57.9602 11.9976 57.6432 11.6683C57.3293 11.339 57.1723 10.922 57.1723 10.4173C57.1723 9.9987 57.2893 9.63245 57.5232 9.31853C57.7571 9.00461 58.0802 8.75994 58.4926 8.58451C58.905 8.40601 59.3774 8.31676 59.9099 8.31676C60.6762 8.31676 61.2794 8.48295 61.7195 8.81534C62.1596 9.14465 62.4505 9.58629 62.5921 10.1403ZM67.3043 15.6431C66.6057 15.6431 66.004 15.4938 65.4993 15.1953C64.9976 14.8937 64.6098 14.4705 64.3359 13.9258C64.0651 13.378 63.9297 12.7363 63.9297 12.0007C63.9297 11.2744 64.0651 10.6342 64.3359 10.0803C64.6098 9.52628 64.9915 9.09387 65.4808 8.78302C65.9732 8.47218 66.5488 8.31676 67.2074 8.31676C67.6075 8.31676 67.9953 8.38293 68.3707 8.51527C68.7462 8.64761 69.0832 8.85535 69.3817 9.13849C69.6803 9.42164 69.9157 9.78942 70.0881 10.2418C70.2604 10.6912 70.3466 11.2375 70.3466 11.8807V12.37H64.7099V11.3359H68.9939C68.9939 10.9728 68.9201 10.6512 68.7724 10.3711C68.6246 10.0879 68.4169 9.86482 68.1491 9.7017C67.8845 9.53859 67.5736 9.45703 67.2166 9.45703C66.8288 9.45703 66.4903 9.55244 66.201 9.74325C65.9148 9.93099 65.6932 10.1772 65.5362 10.4819C65.3823 10.7835 65.3054 11.1113 65.3054 11.4652V12.2731C65.3054 12.747 65.3885 13.1502 65.5547 13.4826C65.7239 13.815 65.9594 14.0689 66.261 14.2443C66.5626 14.4167 66.915 14.5028 67.3182 14.5028C67.5798 14.5028 67.8183 14.4659 68.0337 14.392C68.2492 14.3151 68.4354 14.2012 68.5923 14.0504C68.7493 13.8996 68.8693 13.7134 68.9524 13.4918L70.2589 13.7273C70.1542 14.112 69.9665 14.449 69.6957 14.7383C69.4279 15.0245 69.0909 15.2476 68.6846 15.4077C68.2815 15.5646 67.8214 15.6431 67.3043 15.6431Z" fill="#E8E8E8"/>
<path d="M73.7155 15.5V6.04545H77.658C78.3659 6.04545 78.9583 6.14548 79.4354 6.34552C79.9155 6.54557 80.2756 6.82564 80.5156 7.18572C80.7587 7.54581 80.8803 7.96283 80.8803 8.43679C80.8803 8.79687 80.8049 9.11849 80.6541 9.40163C80.5033 9.6817 80.2956 9.91406 80.0309 10.0987C79.7662 10.2834 79.46 10.4126 79.1122 10.4865V10.5788C79.4938 10.5973 79.8462 10.7004 80.1694 10.8881C80.4956 11.0759 80.7572 11.3375 80.9542 11.6729C81.1511 12.0053 81.2496 12.3993 81.2496 12.8548C81.2496 13.3626 81.1204 13.8165 80.8618 14.2166C80.6033 14.6136 80.2294 14.9276 79.74 15.1584C79.2507 15.3861 78.6567 15.5 77.9581 15.5H73.7155ZM76.0007 13.658H77.4133C77.9088 13.658 78.2735 13.5642 78.5074 13.3764C78.7444 13.1887 78.8629 12.9271 78.8629 12.5916C78.8629 12.3485 78.806 12.1392 78.6921 11.9638C78.5782 11.7853 78.4167 11.6483 78.2074 11.5529C77.9981 11.4544 77.7473 11.4052 77.4549 11.4052H76.0007V13.658ZM76.0007 9.93253H77.2656C77.5149 9.93253 77.7365 9.89098 77.9304 9.80788C78.1243 9.72478 78.2751 9.60476 78.3828 9.4478C78.4936 9.29084 78.549 9.10156 78.549 8.87997C78.549 8.56297 78.4367 8.31368 78.212 8.1321C77.9873 7.95052 77.6842 7.85973 77.3025 7.85973H76.0007V9.93253ZM81.8775 6.04545H84.4304L86.4293 10.0018H86.5124L88.5113 6.04545H91.0643L87.6065 12.3423V15.5H85.3352V12.3423L81.8775 6.04545ZM96.357 9.90483V11.6406H91.9806V9.90483H96.357ZM97.817 13.9304V12.1484L101.69 6.04545H103.274V8.46449H102.355L100.088 12.0561V12.13H105.697V13.9304H97.817ZM102.383 15.5V13.3857L102.429 12.6055V6.04545H104.566V15.5H102.383ZM108.094 15.6339C107.762 15.6339 107.477 15.5169 107.24 15.283C107.006 15.0491 106.891 14.766 106.894 14.4336C106.891 14.1074 107.006 13.8288 107.24 13.598C107.477 13.3641 107.762 13.2472 108.094 13.2472C108.408 13.2472 108.685 13.3641 108.925 13.598C109.169 13.8288 109.292 14.1074 109.295 14.4336C109.292 14.6552 109.233 14.8568 109.119 15.0383C109.008 15.2199 108.862 15.3646 108.681 15.4723C108.502 15.58 108.307 15.6339 108.094 15.6339ZM114.271 15.7308C113.446 15.7308 112.736 15.5354 112.138 15.1445C111.541 14.7506 111.081 14.1858 110.758 13.4503C110.435 12.7116 110.275 11.8237 110.278 10.7866C110.281 9.74941 110.443 8.8692 110.763 8.14595C111.086 7.41962 111.544 6.86719 112.138 6.48864C112.736 6.10701 113.446 5.91619 114.271 5.91619C115.096 5.91619 115.807 6.10701 116.404 6.48864C117.004 6.86719 117.466 7.41962 117.789 8.14595C118.112 8.87228 118.272 9.75248 118.269 10.7866C118.269 11.8268 118.108 12.7163 117.784 13.4549C117.461 14.1935 117.001 14.7583 116.404 15.1491C115.81 15.5369 115.099 15.7308 114.271 15.7308ZM114.271 13.8611C114.764 13.8611 115.162 13.6103 115.467 13.1087C115.772 12.6039 115.922 11.8299 115.919 10.7866C115.919 10.1033 115.85 9.54013 115.712 9.09694C115.573 8.65068 115.381 8.3183 115.135 8.09978C114.888 7.88127 114.601 7.77202 114.271 7.77202C113.782 7.77202 113.386 8.01977 113.085 8.51527C112.783 9.00769 112.631 9.76479 112.628 10.7866C112.625 11.479 112.691 12.053 112.826 12.5085C112.965 12.964 113.159 13.3041 113.408 13.5288C113.657 13.7504 113.945 13.8611 114.271 13.8611Z" fill="white"/>
</g>
</g>
<rect x="0.6" y="0.6" width="122.8" height="19.8" rx="4.4" stroke="url(#paint0_linear_2011_2)" stroke-opacity="0.88" stroke-width="1.2"/>
<defs>
<filter id="filter0_d_2011_2" x="-0.600282" y="-3.10028" width="27.2006" height="27.2006" filterUnits="userSpaceOnUse" color-interpolation-filters="sRGB">
<feFlood flood-opacity="0" result="BackgroundImageFix"/>
<feColorMatrix in="SourceAlpha" type="matrix" values="0 0 0 0 0 0 0 0 0 0 0 0 0 0 0 0 0 0 127 0" result="hardAlpha"/>
<feOffset/>
<feGaussianBlur stdDeviation="2.80014"/>
<feComposite in2="hardAlpha" operator="out"/>
<feColorMatrix type="matrix" values="0 0 0 0 0 0 0 0 0 0 0 0 0 0 0 0 0 0 0.25 0"/>
<feBlend mode="normal" in2="BackgroundImageFix" result="effect1_dropShadow_2011_2"/>
<feBlend mode="normal" in="SourceGraphic" in2="effect1_dropShadow_2011_2" result="shape"/>
</filter>
<filter id="filter1_d_2011_2" x="17.2857" y="-3.21429" width="107.429" height="27.4286" filterUnits="userSpaceOnUse" color-interpolation-filters="sRGB">
<feFlood flood-opacity="0" result="BackgroundImageFix"/>
<feColorMatrix in="SourceAlpha" type="matrix" values="0 0 0 0 0 0 0 0 0 0 0 0 0 0 0 0 0 0 127 0" result="hardAlpha"/>
<feOffset/>
<feGaussianBlur stdDeviation="2.85714"/>
<feComposite in2="hardAlpha" operator="out"/>
<feColorMatrix type="matrix" values="0 0 0 0 0 0 0 0 0 0 0 0 0 0 0 0 0 0 0.25 0"/>
<feBlend mode="normal" in2="BackgroundImageFix" result="effect1_dropShadow_2011_2"/>
<feBlend mode="normal" in="SourceGraphic" in2="effect1_dropShadow_2011_2" result="shape"/>
</filter>
<linearGradient id="paint0_linear_2011_2" x1="0" y1="10.5" x2="124" y2="10.5" gradientUnits="userSpaceOnUse">
<stop stop-color="#A5B2AC"/>
<stop offset="1" stop-color="#ECF0ED"/>
</linearGradient>
<clipPath id="clip0_2011_2">
<rect width="124" height="21" rx="5" fill="white"/>
</clipPath>
<clipPath id="clip1_2011_2">
<rect width="16" height="16" fill="white" transform="translate(5 2.5)"/>
</clipPath>
</defs>
</svg>

<svg fill="none" xmlns="http://www.w3.org/2000/svg" viewBox="0 0 124 21"><g clip-path="url(#a)"><rect width="124" height="21" rx="5" fill="#000"/><g filter="url(#b)"><g clip-path="url(#c)"><path d="M12.985 2.5c2.238 0 4.143.781 5.715 2.343a7.694 7.694 0 0 1 1.714 2.579c.39.966.586 1.992.586 3.078a8.163 8.163 0 0 1-.579 3.078 7.344 7.344 0 0 1-1.707 2.536 8.222 8.222 0 0 1-2.657 1.771c-.99.41-2.014.615-3.071.615a7.775 7.775 0 0 1-3.036-.608 8.047 8.047 0 0 1-2.6-1.756A7.845 7.845 0 0 1 5 10.5c0-1.057.202-2.074.607-3.05a8.033 8.033 0 0 1 1.764-2.622C8.895 3.276 10.766 2.5 12.985 2.5Zm.03 1.443c-1.83 0-3.367.638-4.615 1.914a6.878 6.878 0 0 0-1.45 2.15 6.3 6.3 0 0 0-.508 2.493c0 .857.17 1.684.508 2.479a6.628 6.628 0 0 0 1.45 2.129 6.593 6.593 0 0 0 2.128 1.428c.79.329 1.62.493 2.486.493.857 0 1.688-.166 2.494-.5a6.909 6.909 0 0 0 2.178-1.443c1.247-1.219 1.87-2.747 1.87-4.585a6.57 6.57 0 0 0-.485-2.515 6.397 6.397 0 0 0-1.414-2.114c-1.286-1.286-2.833-1.929-4.643-1.929Zm-.101 5.229-1.072.557c-.114-.238-.255-.405-.421-.5a.95.95 0 0 0-.464-.143c-.715 0-1.072.471-1.072 1.415 0 .428.09.77.271 1.028.181.257.448.386.8.386.467 0 .796-.229.987-.686l.985.5a2.351 2.351 0 0 1-2.1 1.257c-.714 0-1.29-.219-1.729-.657-.438-.438-.657-1.048-.657-1.828 0-.762.222-1.367.665-1.814.442-.448 1.002-.672 1.678-.672.991 0 1.7.385 2.129 1.157Zm4.614 0-1.057.557c-.114-.238-.255-.405-.422-.5a.972.972 0 0 0-.478-.143c-.714 0-1.072.471-1.072 1.415 0 .428.091.77.272 1.028.18.257.447.386.8.386.466 0 .795-.229.985-.686l1 .5c-.219.39-.514.698-.885.921a2.308 2.308 0 0 1-1.214.336c-.724 0-1.303-.219-1.736-.657-.434-.438-.65-1.048-.65-1.828 0-.762.221-1.367.665-1.814.442-.448 1.002-.672 1.678-.672.99 0 1.696.385 2.114 1.157Z" fill="#fff"/></g></g><g filter="url(#d)"><path d="M24.039 15.5V6.045h1.426v8.227h4.284V15.5h-5.71Zm7.227 0V8.41h1.38v7.09h-1.38Zm.697-8.185a.877.877 0 0 1-.619-.24.78.78 0 0 1-.254-.582.77.77 0 0 1 .254-.581.868.868 0 0 1 .619-.245c.24 0 .445.081.614.245.172.16.258.354.258.581a.774.774 0 0 1-.258.582.862.862 0 0 1-.614.24Zm5.527 8.328c-.686 0-1.277-.155-1.773-.466a3.087 3.087 0 0 1-1.135-1.297c-.265-.551-.397-1.182-.397-1.893 0-.72.135-1.356.406-1.907.27-.554.652-.986 1.145-1.297.492-.31 1.072-.466 1.74-.466.539 0 1.019.1 1.44.3.422.197.762.474 1.02.83.262.358.418.775.467 1.252H39.06a1.61 1.61 0 0 0-.508-.859c-.262-.24-.613-.36-1.053-.36-.385 0-.721.102-1.01.305-.287.2-.51.486-.67.858-.16.37-.24.807-.24 1.311 0 .518.078.964.235 1.34.157.375.379.666.665.872.29.206.63.31 1.02.31.262 0 .499-.049.711-.144.216-.099.396-.239.54-.42.148-.182.251-.4.31-.656h1.343a2.61 2.61 0 0 1-.448 1.228 2.58 2.58 0 0 1-1.002.85c-.415.206-.903.31-1.463.31Zm7.445 0c-.698 0-1.3-.15-1.805-.448a3.038 3.038 0 0 1-1.163-1.27c-.271-.547-.407-1.189-.407-1.924 0-.727.136-1.367.407-1.92a3.154 3.154 0 0 1 1.145-1.298c.492-.31 1.068-.466 1.726-.466.4 0 .788.066 1.164.198.375.133.712.34 1.01.623.3.284.535.651.707 1.104.172.45.258.995.258 1.639v.489h-5.636v-1.034h4.284c0-.363-.074-.685-.222-.965a1.675 1.675 0 0 0-.623-.67 1.741 1.741 0 0 0-.933-.244 1.8 1.8 0 0 0-1.015.286 1.92 1.92 0 0 0-.665.739c-.154.302-.23.63-.23.983v.808c0 .474.082.877.248 1.21.17.332.405.586.707.761.301.173.654.259 1.057.259.262 0 .5-.037.716-.111a1.485 1.485 0 0 0 .919-.9l1.306.235a2.365 2.365 0 0 1-.563 1.011 2.73 2.73 0 0 1-1.011.67 3.785 3.785 0 0 1-1.38.235Zm5.954-4.353v4.21h-1.38V8.41h1.325v1.153h.088c.163-.375.418-.677.766-.905.35-.227.792-.341 1.325-.341.483 0 .906.101 1.27.304.363.2.644.499.844.896.2.397.3.888.3 1.473v4.51h-1.38v-4.344c0-.514-.134-.916-.402-1.205-.267-.292-.635-.439-1.103-.439-.32 0-.605.07-.854.208a1.495 1.495 0 0 0-.586.61c-.142.264-.213.584-.213.96Zm11.703-1.15-1.251.222a1.48 1.48 0 0 0-.25-.457 1.233 1.233 0 0 0-.452-.356c-.19-.092-.43-.138-.715-.138-.391 0-.717.088-.979.263-.262.172-.392.396-.392.67 0 .236.087.427.263.572.175.144.458.263.85.355l1.126.259c.652.15 1.138.383 1.458.697.32.314.48.722.48 1.223 0 .425-.123.804-.369 1.136-.243.33-.583.588-1.02.775-.434.188-.937.282-1.51.282-.794 0-1.442-.17-1.943-.508-.502-.341-.81-.826-.923-1.454l1.334-.203c.083.348.254.61.512.79.259.175.596.262 1.011.262.453 0 .814-.093 1.085-.281.27-.19.406-.423.406-.697a.725.725 0 0 0-.249-.559c-.163-.15-.414-.264-.752-.341l-1.2-.263c-.663-.151-1.152-.391-1.469-.72-.314-.33-.47-.747-.47-1.252 0-.418.116-.785.35-1.098.234-.314.557-.56.97-.734.412-.179.884-.268 1.417-.268.766 0 1.37.166 1.81.498.44.33.73.771.872 1.325Zm4.712 5.503c-.698 0-1.3-.15-1.805-.448a3.037 3.037 0 0 1-1.163-1.27c-.27-.547-.406-1.189-.406-1.924 0-.727.135-1.367.406-1.92a3.155 3.155 0 0 1 1.145-1.298c.492-.31 1.068-.466 1.726-.466.4 0 .788.066 1.164.198.375.133.712.34 1.01.623.3.284.535.651.707 1.104.172.45.259.995.259 1.639v.489H64.71v-1.034h4.284c0-.363-.074-.685-.222-.965a1.676 1.676 0 0 0-.623-.67 1.741 1.741 0 0 0-.932-.244 1.8 1.8 0 0 0-1.016.286 1.922 1.922 0 0 0-.665.739c-.154.302-.23.63-.23.983v.808c0 .474.082.877.249 1.21.169.332.404.586.706.761.302.173.654.259 1.057.259.262 0 .5-.037.716-.111a1.484 1.484 0 0 0 .919-.9l1.306.235a2.367 2.367 0 0 1-.563 1.011 2.73 2.73 0 0 1-1.011.67 3.784 3.784 0 0 1-1.38.235Z" fill="#E8E8E8"/><path d="M73.716 15.5V6.045h3.942c.708 0 1.3.1 1.777.3.48.2.84.48 1.08.84.244.36.365.778.365 1.252 0 .36-.075.681-.226.965a1.99 1.99 0 0 1-.623.697 2.49 2.49 0 0 1-.919.387v.093c.382.018.734.121 1.057.31.327.187.588.449.785.784.197.332.296.726.296 1.182 0 .508-.13.961-.388 1.362-.259.397-.633.71-1.122.941-.49.228-1.083.342-1.782.342h-4.242ZM76 13.658h1.412c.496 0 .86-.094 1.094-.282.237-.187.356-.449.356-.784 0-.244-.057-.453-.17-.628a1.099 1.099 0 0 0-.486-.411 1.755 1.755 0 0 0-.752-.148H76v2.253Zm0-3.725h1.265c.249 0 .47-.042.664-.125a1.02 1.02 0 0 0 .453-.36.96.96 0 0 0 .166-.568c0-.317-.112-.566-.337-.748-.225-.181-.528-.272-.91-.272H76v2.073Zm5.876-3.888h2.553l2 3.957h.082l2-3.957h2.552l-3.457 6.297V15.5h-2.272v-3.158l-3.457-6.297Zm14.48 3.86v1.736H91.98V9.905h4.376Zm1.46 4.025v-1.782l3.873-6.103h1.584v2.42h-.919l-2.267 3.591v.074h5.609v1.8h-7.88Zm4.566 1.57v-2.114l.046-.78v-6.56h2.137V15.5h-2.183Zm5.711.134c-.332 0-.617-.117-.854-.351a1.14 1.14 0 0 1-.346-.85 1.115 1.115 0 0 1 .346-.835c.237-.234.522-.35.854-.35.314 0 .591.116.831.35a1.123 1.123 0 0 1 .194 1.44 1.264 1.264 0 0 1-.438.434 1.116 1.116 0 0 1-.587.162Zm6.177.097c-.825 0-1.535-.196-2.133-.586-.597-.394-1.057-.96-1.38-1.695-.323-.738-.483-1.626-.48-2.663.003-1.038.165-1.918.485-2.641.323-.726.781-1.279 1.375-1.657.598-.382 1.308-.573 2.133-.573s1.536.191 2.133.573c.6.378 1.062.93 1.385 1.657.323.726.483 1.606.48 2.64 0 1.04-.161 1.93-.485 2.669-.323.739-.783 1.303-1.38 1.694-.594.388-1.305.582-2.133.582Zm0-1.87c.493 0 .891-.25 1.196-.752.305-.505.455-1.28.452-2.322 0-.684-.069-1.247-.207-1.69-.139-.446-.331-.779-.577-.997a1.262 1.262 0 0 0-.864-.328c-.489 0-.885.248-1.186.743-.302.493-.454 1.25-.457 2.272-.003.692.063 1.266.198 1.721.139.456.333.796.582 1.02.249.222.537.333.863.333Z" fill="#fff"/></g></g><rect x=".6" y=".6" width="122.8" height="19.8" rx="4.4" stroke="url(#e)" stroke-opacity=".88" stroke-width="1.2"/><defs><clipPath id="a"><rect width="124" height="21" rx="5" fill="#fff"/></clipPath><clipPath id="c"><path fill="#fff" transform="translate(5 2.5)" d="M0 0h16v16H0z"/></clipPath><filter id="b" x="-.6" y="-3.1" width="27.201" height="27.201" filterUnits="userSpaceOnUse" color-interpolation-filters="sRGB"><feFlood flood-opacity="0" result="BackgroundImageFix"/><feColorMatrix in="SourceAlpha" values="0 0 0 0 0 0 0 0 0 0 0 0 0 0 0 0 0 0 127 0" result="hardAlpha"/><feOffset/><feGaussianBlur stdDeviation="2.8"/><feComposite in2="hardAlpha" operator="out"/><feColorMatrix values="0 0 0 0 0 0 0 0 0 0 0 0 0 0 0 0 0 0 0.25 0"/><feBlend in2="BackgroundImageFix" result="effect1_dropShadow_2011_2"/><feBlend in="SourceGraphic" in2="effect1_dropShadow_2011_2" result="shape"/></filter><filter id="d" x="17.286" y="-3.214" width="107.429" height="27.429" filterUnits="userSpaceOnUse" color-interpolation-filters="sRGB"><feFlood flood-opacity="0" result="BackgroundImageFix"/><feColorMatrix in="SourceAlpha" values="0 0 0 0 0 0 0 0 0 0 0 0 0 0 0 0 0 0 127 0" result="hardAlpha"/><feOffset/><feGaussianBlur stdDeviation="2.857"/><feComposite in2="hardAlpha" operator="out"/><feColorMatrix values="0 0 0 0 0 0 0 0 0 0 0 0 0 0 0 0 0 0 0.25 0"/><feBlend in2="BackgroundImageFix" result="effect1_dropShadow_2011_2"/><feBlend in="SourceGraphic" in2="effect1_dropShadow_2011_2" result="shape"/></filter><linearGradient id="e" x1="0" y1="10.5" x2="124" y2="10.5" gradientUnits="userSpaceOnUse"><stop stop-color="#A5B2AC"/><stop offset="1" stop-color="#ECF0ED"/></linearGradient></defs></svg>
